Yaru++/mimetypes/16/libreoffice-oasis-master-document.svg

<svg height="16" viewBox="0 0 4.233125 4.233125" width="16" xmlns="http://www.w3.org/2000/svg" xmlns:xlink="http://www.w3.org/1999/xlink"><linearGradient id="a" gradientUnits="userSpaceOnUse" x1="2.116711" x2="2.116711" y1=".264571" y2="3.968556"><stop offset="0" stop-color="#fff"/><stop offset=".125" stop-color="#fff" stop-opacity=".098039"/><stop offset=".92500001" stop-color="#fff" stop-opacity=".098039"/><stop offset="1" stop-color="#fff" stop-opacity=".498039"/></linearGradient><linearGradient id="b" gradientTransform="matrix(0 -.00817387 .0079466 0 -.433036 4.136917)" gradientUnits="userSpaceOnUse" x1="441.37933" x2="52.9655" y1="240.30263" y2="401.439"><stop offset="0" stop-color="#f2f2f2"/><stop offset="1" stop-color="#f9f9f9"/></linearGradient><linearGradient id="c" gradientTransform="matrix(0 -.01021733 .01033057 0 -1.197959 4.642008)" gradientUnits="userSpaceOnUse" x1="52.965412" x2="441.37927" y1="401.42969" y2="240.30267"><stop offset="0" stop-color="#666"/><stop offset="1" stop-color="#333"/></linearGradient><path d="m1.3483185.26457064c-.1902366 0-.3444308.003678-.48573251.0273883-.1413044.023732-.2826405.0730955-.39065663.18085764-.10801348.10775949-.15783472.24955062-.18137354.39116982-.02354675.1416218-.02677187.2964457-.02584852.4872856v.7652908 1.0314115c-.00079371.1900038.002381.3445631.0258485.4857352.0235468.1416192.0733574.2834104.18137354.3911699.10801613.1077621.24935223.1571389.39065663.1808576.14130173.023732.29549593.027388.48573253.027388h1.5367831c.1902367 0 .3440949-.00362.4852167-.027388.1411245-.0237584.2824765-.0735294.3901381-.1813736.1076616-.1078441.1571653-.249413.1808576-.3906539.0236949-.1412435.0273883-.2951308.0273883-.4857352v-1.0314115-.7937109l-1.0582812-1.05828126z" opacity=".1"/><path d="m1.2845041.13228813c-.80473288 0-.89132145.0817496-.88737671.87924917v1.1050281 1.1050256c-.003942.7975022.0826438.8792518.88737671.8792518h1.6645336c.8047356 0 .8873794-.081739.8873794-.8792518v-1.1050256-1.1338742l-.8598535-.85040307z" fill="url(#c)"/><path d="m1.4765531.52914095c-.68269461 0-.68269461 0-.68259931.70339985v.884022.8840194c-.0000953.7034025-.0000953.7034025.68259931.7034025h1.2804118c.6825968 0 .6825994 0 .6825994-.7034025v-.8840194l-.0000026-1.0582813-.5291406-.52914055z" fill="url(#b)"/><g enable-background="new" transform="matrix(.26457031 0 0 .26457031 -84.66227 -62.43858)"><path d="m324.00424 240.98712h7v7h-7z" fill="#63bbee"/><path d="m327.00427 240.99995v3h-3v1h3v3h1v-3h3v-1h-3v-3z" fill="#023f62"/></g><path d="m2.1167101.26457064v3.70398436h.7683915c.7428341 0 .8190304-.076236.8190304-.8205807v-1.0314115-1.0582813l-.7937109-.79371086z" fill="#fff" opacity=".2"/><path d="m.52928821 2.1165628v1.0314115c-.003651.7443342.0761989.8205807.81903029.8205807h1.5367831c.7428341 0 .8190304-.076236.8190304-.8205807v-1.0314115z" fill="#fff" opacity=".2"/><path d="m1.3483185.00000033c-.1902366 0-.3444308.003678-.48573251.0273883-.1413044.023732-.2826405.0730955-.39065663.18085764-.10801348.10775949-.15783472.2495533-.18137354.39116985-.02354675.14162448-.02676129.29644578-.02584852.48728558v1.0298611 1.0314115c-.00079371.1900038.002381.3445631.0258485.4857352.0235468.1416192.0733574.2834104.18137354.3911699.10801613.1077621.24935223.1571389.39065663.1808576.14130173.023732.29549593.027388.48573253.027388h1.5367831c.1902367 0 .3440949-.00362.4852167-.027388.1411245-.0237584.2824765-.0735294.3901381-.1813736.1076616-.1078441.1571653-.249413.1808576-.3906539.0236949-.1412435.0273883-.2951308.0273883-.4857352v-1.0314115-1.1678292l-.9487333-.94873327zm0 .26457031h1.5621026l.7937109.79371086v1.0582813 1.0314115c0 .7443448-.076196.8205807-.8190304.8205807h-1.5367831c-.74283139 0-.82268137-.076246-.81903029-.8205807v-1.0314115-1.0314115c-.0036405-.74433414.0761989-.82058066.81903029-.82058066z" opacity=".4"/><path d="m1.3483185.26457064c-.74283139 0-.82267079.0762465-.81903029.82058066v1.0314115 1.0314115c-.003651.7443342.0761989.8205807.81903029.8205807h1.5367831c.7428341 0 .8190304-.076236.8190304-.8205807v-1.0314115-1.0582813l-.7937109-.79371086zm0 .26457031h1.5621026l.5291406.52914055v1.0582813 1.0314115c0 .1815667-.00582.3159975-.019631.3984058-.013811.082406-.029841.09959-.034103.1038651-.00426.00426-.021245.020293-.1033491.034103-.082112.013816-.2161962.019636-.3973767.019636h-1.5367834c-.1811777 0-.3153969-.0063-.39788731-.02016-.082493-.013837-.1000155-.029235-.1043809-.033587-.004365-.00437-.0199486-.021324-.0335898-.1033491-.0136254-.08203-.0194988-.216564-.0185993-.3978899v-.0005292-1.0319062-1.0319274-.0005291c-.0007937-.1813286.00497-.3158599.018599-.39788995.013625-.08203.029222-.0989916.03359-.1033491.00436-.004365.02188-.0197369.1043809-.0335872.08249-.013837.21670961-.0201603.39788731-.0201603z" fill="url(#a)" opacity=".4"/><path d="m3.704132 1.3228519v-.2645704l-.7937109-.79371086h-.2645704v.40494339.0155303.008334c0 .54761027.073304.63205057.6221715.62936517z" opacity=".6"/><path d="m3.704132 1.058181-.7937109-.79361036v.29438474.0128317.006879c0 .45177762.020822.48176402.4736364.47954952z" fill="#888"/></svg>

<?xml version="1.0" encoding="UTF-8" standalone="no"?>
<svg
   xmlns:dc="http://purl.org/dc/elements/1.1/"
   xmlns:cc="http://creativecommons.org/ns#"
   xmlns:rdf="http://www.w3.org/1999/02/22-rdf-syntax-ns#"
   xmlns:svg="http://www.w3.org/2000/svg"
   xmlns="http://www.w3.org/2000/svg"
   xmlns:xlink="http://www.w3.org/1999/xlink"
   xmlns:sodipodi="http://sodipodi.sourceforge.net/DTD/sodipodi-0.dtd"
   xmlns:inkscape="http://www.inkscape.org/namespaces/inkscape"
   height="16"
   viewBox="0 0 4.233125 4.233125"
   width="16"
   version="1.1"
   id="svg38"
   sodipodi:docname="libreoffice-oasis-master-document.svg"
   inkscape:version="0.92.5 (2060ec1f9f, 2020-04-08)">
  <metadata
     id="metadata44">
    <rdf:RDF>
      <cc:Work
         rdf:about="">
        <dc:format>image/svg+xml</dc:format>
        <dc:type
           rdf:resource="http://purl.org/dc/dcmitype/StillImage" />
      </cc:Work>
    </rdf:RDF>
  </metadata>
  <defs
     id="defs42">
    <linearGradient
       gradientTransform="matrix(0.26457031,0,0,0.26457031,-84.662351,-62.438592)"
       inkscape:collect="always"
       xlink:href="#linearGradient927"
       id="linearGradient993"
       x1="328"
       y1="237"
       x2="328"
       y2="251"
       gradientUnits="userSpaceOnUse" />
    <linearGradient
       inkscape:collect="always"
       id="linearGradient927">
      <stop
         style="stop-color:#ffffff;stop-opacity:1;"
         offset="0"
         id="stop923" />
      <stop
         id="stop933"
         offset="0.125"
         style="stop-color:#ffffff;stop-opacity:0.09803922" />
      <stop
         id="stop931"
         offset="0.92500001"
         style="stop-color:#ffffff;stop-opacity:0.09803922" />
      <stop
         style="stop-color:#ffffff;stop-opacity:0.49803922"
         offset="1"
         id="stop925" />
    </linearGradient>
    <linearGradient
       inkscape:collect="always"
       xlink:href="#linearGradient4338"
       id="linearGradient920-7"
       gradientUnits="userSpaceOnUse"
       gradientTransform="matrix(0,-0.00817387,0.0079466,0,-0.43303603,4.1369169)"
       x1="441.37933"
       y1="240.30263"
       x2="52.9655"
       y2="401.439" />
    <linearGradient
       inkscape:collect="always"
       id="linearGradient4338">
      <stop
         style="stop-color:#f2f2f2;stop-opacity:1"
         offset="0"
         id="stop4340" />
      <stop
         style="stop-color:#f9f9f9;stop-opacity:1"
         offset="1"
         id="stop4342" />
    </linearGradient>
    <linearGradient
       inkscape:collect="always"
       xlink:href="#linearGradient9961"
       id="linearGradient920"
       gradientUnits="userSpaceOnUse"
       gradientTransform="matrix(0,-0.01021733,0.01033057,0,-1.1979591,4.6420081)"
       x1="52.965412"
       y1="401.42969"
       x2="441.37927"
       y2="240.30267" />
    <linearGradient
       id="linearGradient9961">
      <stop
         offset="0"
         style="stop-color:#666666;stop-opacity:1"
         id="stop9957" />
      <stop
         offset="1"
         style="stop-color:#333333;stop-opacity:1"
         id="stop9959" />
    </linearGradient>
  </defs>
  <sodipodi:namedview
     pagecolor="#ffffff"
     bordercolor="#666666"
     borderopacity="1"
     objecttolerance="10"
     gridtolerance="10"
     guidetolerance="10"
     inkscape:pageopacity="0"
     inkscape:pageshadow="2"
     inkscape:window-width="834"
     inkscape:window-height="480"
     id="namedview40"
     showgrid="false"
     inkscape:zoom="14.75"
     inkscape:cx="8"
     inkscape:cy="8"
     inkscape:window-x="0"
     inkscape:window-y="28"
     inkscape:window-maximized="0"
     inkscape:current-layer="svg38" />
  <linearGradient
     id="a"
     gradientUnits="userSpaceOnUse"
     x1="328"
     x2="328"
     y1="237"
     y2="251">
    <stop
       offset="0"
       stop-color="#fff"
       id="stop2" />
    <stop
       offset=".125"
       stop-color="#fff"
       stop-opacity=".098039"
       id="stop4" />
    <stop
       offset=".92500001"
       stop-color="#fff"
       stop-opacity=".098039"
       id="stop6" />
    <stop
       offset="1"
       stop-color="#fff"
       stop-opacity=".498039"
       id="stop8" />
  </linearGradient>
  <clipPath
     id="b">
    <path
       d="m325.09646 237c-2.80769 0-3.10979.28839-3.09603 3.10176v3.89824 3.89824c-.0138 2.81337.28834 3.10176 3.09603 3.10176h5.8075c2.8077 0 3.09604-.28835 3.09604-3.10176v-3.89824-3.89824c0-2.8134-.28835-3.10176-3.09604-3.10176z"
       id="path11" />
  </clipPath>
  <linearGradient
     id="c"
     gradientUnits="userSpaceOnUse"
     x1="3.17497592"
     x2="1.05841344"
     y1="-.00000084"
     y2="4.23312412">
    <stop
       offset="0"
       stop-color="#f2f2f2"
       id="stop14" />
    <stop
       offset="1"
       stop-color="#f9f9f9"
       id="stop16" />
  </linearGradient>
  <linearGradient
     id="d"
     gradientTransform="matrix(0 -.00953618 -.00953591 0 5.17627 4.473643)"
     gradientUnits="userSpaceOnUse"
     x1="459.03448"
     x2="35.310345"
     y1="419.23337"
     y2="207.36522">
    <stop
       offset="0"
       stop-color="#666"
       id="stop19" />
    <stop
       offset="1"
       stop-color="#333"
       id="stop21" />
  </linearGradient>
  <path
     style="color:#000000;font-style:normal;font-variant:normal;font-weight:normal;font-stretch:normal;font-size:medium;line-height:normal;font-family:sans-serif;font-variant-ligatures:normal;font-variant-position:normal;font-variant-caps:normal;font-variant-numeric:normal;font-variant-alternates:normal;font-feature-settings:normal;text-indent:0;text-align:start;text-decoration:none;text-decoration-line:none;text-decoration-style:solid;text-decoration-color:#000000;letter-spacing:normal;word-spacing:normal;text-transform:none;writing-mode:lr-tb;direction:ltr;text-orientation:mixed;dominant-baseline:auto;baseline-shift:baseline;text-anchor:start;white-space:normal;shape-padding:0;clip-rule:nonzero;display:inline;overflow:visible;visibility:visible;opacity:0.1;isolation:auto;mix-blend-mode:normal;color-interpolation:sRGB;color-interpolation-filters:linearRGB;solid-color:#000000;solid-opacity:1;vector-effect:none;fill:#000000;fill-opacity:1;fill-rule:nonzero;stroke:none;stroke-width:0.52914065;stroke-linecap:butt;stroke-linejoin:miter;stroke-miterlimit:4;stroke-dasharray:none;stroke-dashoffset:0;stroke-opacity:1;marker:none;color-rendering:auto;image-rendering:auto;shape-rendering:auto;text-rendering:auto;enable-background:accumulate"
     d="m 1.3483185,0.26457064 c -0.1902366,0 -0.3444308,0.003678 -0.48573251,0.0273883 -0.1413044,0.023732 -0.2826405,0.0730955 -0.39065663,0.18085764 C 0.36391588,0.58057607 0.31409464,0.7223672 0.29055582,0.8639864 0.26700907,1.0056082 0.26378395,1.1604321 0.2647073,1.351272 V 2.1165628 3.1479743 C 0.26391359,3.3379781 0.2670883,3.4925374 0.2905558,3.6337095 0.3141026,3.7753287 0.3639132,3.9171199 0.47192934,4.0248794 0.57994547,4.1326415 0.72128157,4.1820183 0.86258597,4.205737 1.0038877,4.229469 1.1580819,4.233125 1.3483185,4.233125 h 1.5367831 c 0.1902367,0 0.3440949,-0.00362 0.4852167,-0.027388 C 3.5114428,4.1819786 3.6527948,4.1322076 3.7604564,4.0243634 3.868118,3.9165193 3.9176217,3.7749504 3.941314,3.6337095 3.9650089,3.492466 3.9687023,3.3385787 3.9687023,3.1479743 V 2.1165628 1.3228519 L 2.9104211,0.26457064 Z"
     id="path997"
     inkscape:connector-curvature="0"
     sodipodi:nodetypes="scscccccccsscscscccs" />
  <path
     style="color:#000000;display:inline;overflow:visible;visibility:visible;fill:url(#linearGradient920);fill-opacity:1;fill-rule:nonzero;stroke:none;stroke-width:0.26457033;marker:none;enable-background:accumulate"
     d="m 1.2845041,0.13228813 c -0.80473288,0 -0.89132145,0.0817496 -0.88737671,0.87924917 V 2.1165654 3.221591 c -0.003942,0.7975022 0.0826438,0.8792518 0.88737671,0.8792518 h 1.6645336 c 0.8047356,0 0.8873794,-0.081739 0.8873794,-0.8792518 V 2.1165654 0.9826912 L 2.9765636,0.13228813 Z"
     id="path918"
     inkscape:connector-curvature="0"
     sodipodi:nodetypes="scccssscccs" />
  <path
     style="color:#000000;display:inline;overflow:visible;visibility:visible;fill:url(#linearGradient920-7);fill-opacity:1;fill-rule:nonzero;stroke:none;stroke-width:0.26457033;marker:none;enable-background:accumulate"
     d="m 1.4765531,0.52914095 c -0.68269461,0 -0.68269461,0 -0.68259931,0.70339985 v 0.884022 0.8840194 c -9.53e-5,0.7034025 -9.53e-5,0.7034025 0.68259931,0.7034025 h 1.2804118 c 0.6825968,0 0.6825994,0 0.6825994,-0.7034025 V 2.1165628 L 3.4395617,1.0582815 2.9104211,0.52914095 Z"
     id="path918-8"
     inkscape:connector-curvature="0"
     sodipodi:nodetypes="scccssscccs" />
  <g
     transform="matrix(0.26457031,0,0,0.26457031,-84.66227,-62.43858)"
     style="display:inline;enable-background:new"
     id="g31616">
    <rect
       style="display:inline;overflow:visible;visibility:visible;fill:#63bbee;fill-opacity:1;fill-rule:nonzero;stroke:none;stroke-width:0.93699998;marker:none"
       id="rect15019"
       width="7"
       height="7"
       x="324.00424"
       y="240.98712" />
    <path
       inkscape:connector-curvature="0"
       style="display:inline;overflow:visible;visibility:visible;fill:#023f62;fill-opacity:1;fill-rule:nonzero;stroke:none;stroke-width:1;marker:none"
       d="m 327.00427,240.99995 v 3 h -3 v 1 h 3 v 3 h 1 v -3 h 3 v -1 h -3 v -3 z"
       id="rect14949" />
  </g>
  <path
     style="color:#000000;display:inline;overflow:visible;visibility:visible;opacity:0.2;fill:#ffffff;fill-opacity:1;fill-rule:nonzero;stroke:none;stroke-width:0.26457033;marker:none;enable-background:accumulate"
     d="M 2.1167101,0.26457064 V 3.968555 h 0.7683915 c 0.7428341,0 0.8190304,-0.076236 0.8190304,-0.8205807 V 2.1165628 1.0582815 L 2.9104211,0.26457064 Z"
     id="path1009"
     inkscape:connector-curvature="0"
     sodipodi:nodetypes="ccsscccc" />
  <path
     style="color:#000000;display:inline;overflow:visible;visibility:visible;opacity:0.2;fill:#ffffff;fill-opacity:1;fill-rule:nonzero;stroke:none;stroke-width:0.26457033;marker:none;enable-background:accumulate"
     d="M 0.52928821,2.1165628 V 3.1479743 C 0.52563721,3.8923085 0.60548711,3.968555 1.3483185,3.968555 h 1.5367831 c 0.7428341,0 0.8190304,-0.076236 0.8190304,-0.8205807 V 2.1165628 Z"
     id="path1016"
     inkscape:connector-curvature="0" />
  <path
     style="color:#000000;font-style:normal;font-variant:normal;font-weight:normal;font-stretch:normal;font-size:medium;line-height:normal;font-family:sans-serif;font-variant-ligatures:normal;font-variant-position:normal;font-variant-caps:normal;font-variant-numeric:normal;font-variant-alternates:normal;font-feature-settings:normal;text-indent:0;text-align:start;text-decoration:none;text-decoration-line:none;text-decoration-style:solid;text-decoration-color:#000000;letter-spacing:normal;word-spacing:normal;text-transform:none;writing-mode:lr-tb;direction:ltr;text-orientation:mixed;dominant-baseline:auto;baseline-shift:baseline;text-anchor:start;white-space:normal;shape-padding:0;clip-rule:nonzero;display:inline;overflow:visible;visibility:visible;opacity:0.4;isolation:auto;mix-blend-mode:normal;color-interpolation:sRGB;color-interpolation-filters:linearRGB;solid-color:#000000;solid-opacity:1;vector-effect:none;fill:#000000;fill-opacity:1;fill-rule:nonzero;stroke:none;stroke-width:0.52914065;stroke-linecap:butt;stroke-linejoin:miter;stroke-miterlimit:4;stroke-dasharray:none;stroke-dashoffset:0;stroke-opacity:1;marker:none;color-rendering:auto;image-rendering:auto;shape-rendering:auto;text-rendering:auto;enable-background:accumulate"
     d="m 1.3483185,3.3e-7 c -0.1902366,0 -0.3444308,0.003678 -0.48573251,0.0273883 -0.1413044,0.023732 -0.2826405,0.0730955 -0.39065663,0.18085764 C 0.36391588,0.31600576 0.31409464,0.45779957 0.29055582,0.59941612 0.26700907,0.7410406 0.26379453,0.8958619 0.2647073,1.0867017 V 2.1165628 3.1479743 C 0.26391359,3.3379781 0.2670883,3.4925374 0.2905558,3.6337095 0.3141026,3.7753287 0.3639132,3.9171199 0.47192934,4.0248794 0.57994547,4.1326415 0.72128157,4.1820183 0.86258597,4.205737 1.0038877,4.229469 1.1580819,4.233125 1.3483185,4.233125 h 1.5367831 c 0.1902367,0 0.3440949,-0.00362 0.4852167,-0.027388 C 3.5114428,4.1819786 3.6527948,4.1322076 3.7604564,4.0243634 3.868118,3.9165193 3.9176217,3.7749504 3.941314,3.6337095 3.9650089,3.492466 3.9687023,3.3385787 3.9687023,3.1479743 V 2.1165628 0.9487336 L 3.019969,3.3e-7 Z m 0,0.26457031 H 2.9104211 L 3.704132,1.0582815 v 1.0582813 1.0314115 c 0,0.7443448 -0.076196,0.8205807 -0.8190304,0.8205807 H 1.3483185 c -0.74283139,0 -0.82268137,-0.076246 -0.81903029,-0.8205807 V 2.1165628 1.0851513 C 0.52564771,0.34081716 0.60548711,0.26457064 1.3483185,0.26457064 Z"
     id="path928"
     inkscape:connector-curvature="0"
     sodipodi:nodetypes="scscccccccsscscscccsscccssscccs" />
  <path
     style="color:#000000;font-style:normal;font-variant:normal;font-weight:normal;font-stretch:normal;font-size:medium;line-height:normal;font-family:sans-serif;font-variant-ligatures:normal;font-variant-position:normal;font-variant-caps:normal;font-variant-numeric:normal;font-variant-alternates:normal;font-feature-settings:normal;text-indent:0;text-align:start;text-decoration:none;text-decoration-line:none;text-decoration-style:solid;text-decoration-color:#000000;letter-spacing:normal;word-spacing:normal;text-transform:none;writing-mode:lr-tb;direction:ltr;text-orientation:mixed;dominant-baseline:auto;baseline-shift:baseline;text-anchor:start;white-space:normal;shape-padding:0;clip-rule:nonzero;display:inline;overflow:visible;visibility:visible;opacity:0.4;isolation:auto;mix-blend-mode:normal;color-interpolation:sRGB;color-interpolation-filters:linearRGB;solid-color:#000000;solid-opacity:1;vector-effect:none;fill:url(#linearGradient993);fill-opacity:1;fill-rule:nonzero;stroke:none;stroke-width:0.52914065;stroke-linecap:butt;stroke-linejoin:miter;stroke-miterlimit:4;stroke-dasharray:none;stroke-dashoffset:0;stroke-opacity:1;marker:none;color-rendering:auto;image-rendering:auto;shape-rendering:auto;text-rendering:auto;enable-background:accumulate"
     clip-path="none"
     d="m 1.3483185,0.26457064 c -0.74283139,0 -0.82267079,0.0762465 -0.81903029,0.82058066 V 2.1165628 3.1479743 C 0.52563721,3.8923085 0.60548711,3.968555 1.3483185,3.968555 h 1.5367831 c 0.7428341,0 0.8190304,-0.076236 0.8190304,-0.8205807 V 2.1165628 1.0582815 L 2.9104211,0.26457064 Z m 0,0.26457031 H 2.9104211 L 3.4395617,1.0582815 v 1.0582813 1.0314115 c 0,0.1815667 -0.00582,0.3159975 -0.019631,0.3984058 -0.013811,0.082406 -0.029841,0.09959 -0.034103,0.1038651 -0.00426,0.00426 -0.021245,0.020293 -0.1033491,0.034103 -0.082112,0.013816 -0.2161962,0.019636 -0.3973767,0.019636 H 1.3483185 c -0.1811777,0 -0.3153969,-0.0063 -0.39788731,-0.02016 -0.082493,-0.013837 -0.1000155,-0.029235 -0.1043809,-0.033587 -0.004365,-0.00437 -0.0199486,-0.021324 -0.0335898,-0.1033491 -0.0136254,-0.08203 -0.0194988,-0.216564 -0.0185993,-0.3978899 V 3.148469 2.1165628 1.0846354 1.0841063 c -7.937e-4,-0.1813286 0.00497,-0.3158599 0.018599,-0.39788995 0.013625,-0.08203 0.029222,-0.0989916 0.03359,-0.1033491 0.00436,-0.004365 0.02188,-0.0197369 0.1043809,-0.0335872 0.08249,-0.013837 0.21670961,-0.0201603 0.39788731,-0.0201603 z"
     id="path937"
     inkscape:connector-curvature="0"
     sodipodi:nodetypes="scccssscccsscccscccssccccccccsccs" />
  <path
     inkscape:connector-curvature="0"
     style="color:#000000;display:inline;overflow:visible;visibility:visible;opacity:0.6;fill:#000000;fill-opacity:1;fill-rule:nonzero;stroke:none;stroke-width:0.06614863;marker:none;enable-background:accumulate"
     d="M 3.704132,1.3228519 V 1.0582815 L 2.9104211,0.26457064 H 2.6458507 v 0.40494339 0.0155303 0.008334 c 0,0.54761027 0.073304,0.63205057 0.6221715,0.62936517 z"
     id="rect4158-0-3-62-2-3-7-3"
     sodipodi:nodetypes="ccccccscc" />
  <path
     inkscape:connector-curvature="0"
     style="color:#000000;display:inline;overflow:visible;visibility:visible;fill:#888888;fill-opacity:1;fill-rule:nonzero;stroke:none;stroke-width:0.06614863;marker:none;enable-background:accumulate"
     d="M 3.704132,1.058181 2.9104211,0.26457064 v 0.29438474 0.0128317 0.006879 c 0,0.45177762 0.020822,0.48176402 0.4736364,0.47954952 z"
     id="rect4158-0-3-62-6-5-5"
     sodipodi:nodetypes="ccccscc" />
</svg>
